assets/Page with curl/Flat/page_with_curl_flat.svg

<svg width="32" height="32" viewBox="0 0 32 32" fill="none" xmlns="http://www.w3.org/2000/svg">
<path d="M4.5 2C3.94772 2 3.5 2.44771 3.5 3V25C3.5 27.3412 5.49666 30 8.00001 30H25.5C27.4732 29.754 29 28.0398 29 26C29 25.4477 28.5523 25 28 25H25.5V3C25.5 2.44772 25.0523 2 24.5 2H4.5Z" fill="#B4ACBC"/>
<path d="M5 3C4.72386 3 4.5 3.22386 4.5 3.5C4.50002 6.06747 4.50007 8.63494 4.50013 11.2024C4.50023 15.6348 4.50033 20.0673 4.50021 24.4997C4.50015 26.983 6.51144 28.9965 8.99388 29C10.2792 28.3944 11.3388 27.293 11.5 26C11.5 25.4477 11.9477 25 12.5 25H24.5V3.5C24.5 3.22386 24.2761 3 24 3H5Z" fill="#F3EEF8"/>
<path d="M8.5 10C8.22386 10 8 10.2239 8 10.5C8 10.7761 8.22386 11 8.5 11H20.5C20.7761 11 21 10.7761 21 10.5C21 10.2239 20.7761 10 20.5 10H8.5ZM8.5 13C8.22386 13 8 13.2239 8 13.5C8 13.7761 8.22386 14 8.5 14H20.5C20.7761 14 21 13.7761 21 13.5C21 13.2239 20.7761 13 20.5 13H8.5ZM8 16.5C8 16.2239 8.22386 16 8.5 16H20.5C20.7761 16 21 16.2239 21 16.5C21 16.7761 20.7761 17 20.5 17H8.5C8.22386 17 8 16.7761 8 16.5ZM8.5 19C8.22386 19 8 19.2239 8 19.5C8 19.7761 8.22386 20 8.5 20H15.5C15.7761 20 16 19.7761 16 19.5C16 19.2239 15.7761 19 15.5 19H8.5Z" fill="#998EA4"/>
</svg>

<svg xmlns="http://www.w3.org/2000/svg" width="32" height="32" fill="none"><path fill="#B4ACBC" d="M4.5 2a1 1 0 0 0-1 1v22c0 2.341 1.997 5 4.5 5h17.5c1.973-.246 3.5-1.96 3.5-4a1 1 0 0 0-1-1h-2.5V3a1 1 0 0 0-1-1h-20Z"/><path fill="#F3EEF8" d="M5 3a.5.5 0 0 0-.5.5 494389.295 494389.295 0 0 0 0 21A4.5 4.5 0 0 0 8.994 29c1.285-.606 2.345-1.707 2.506-3a1 1 0 0 1 1-1h12V3.5A.5.5 0 0 0 24 3H5Z"/><path fill="#998EA4" d="M8.5 10a.5.5 0 0 0 0 1h12a.5.5 0 0 0 0-1h-12Zm0 3a.5.5 0 0 0 0 1h12a.5.5 0 0 0 0-1h-12ZM8 16.5a.5.5 0 0 1 .5-.5h12a.5.5 0 0 1 0 1h-12a.5.5 0 0 1-.5-.5Zm.5 2.5a.5.5 0 0 0 0 1h7a.5.5 0 0 0 0-1h-7Z"/></svg>
